img/svg/os/inferno.svg

<?xml version="1.0" encoding="iso-8859-1"?>
<!-- Generator: Adobe Illustrator 21.0.2, SVG Export Plug-In . SVG Version: 6.00 Build 0)  -->
<svg version="1.1" id="&#x56FE;&#x5C42;_1" xmlns="http://www.w3.org/2000/svg" xmlns:xlink="http://www.w3.org/1999/xlink" x="0px"
	 y="0px" viewBox="0 0 16 16" style="enable-background:new 0 0 16 16;" xml:space="preserve">
<path d="M7.668,6.54C5.386,4.539,2.607,5.272,2.474,6.859c-0.068,0.81,0.305,1.15,0.658,1.233c0.227,0.053,0.446,0.008,0.601-0.097
	C2.255,8.075,2.817,4.886,5.648,6.438c2.471,1.355,1.596,5.482,1.202,6.861c-0.172,0.603-0.45,1.054-0.766,1.391
	C5.896,14.891,5.631,15,5.355,15H2c-0.552,0-1-0.448-1-1V2c0-0.552,0.448-1,1-1h12c0.552,0,1,0.448,1,1v12c0,0.552-0.448,1-1,1
	h-3.47c-0.283,0-0.551-0.118-0.744-0.325c-0.311-0.333-0.598-0.776-0.805-1.366C8.193,11.07,9.078,7.498,11.616,8.3
	c0.679,0.214,1.066,0.946,0.884,1.559c-0.133,0.549-0.811,1.014-1.306,0.597c0.157,0.276,0.541,0.424,1.115,0.192
	c0.677-0.273,0.939-1.3,0.508-2.166c-0.407-0.816-2.034-1.483-3.656-0.624L9.113,7.691c-0.572-2.149-0.432-4.713,1.686-4.574
	c1.318,0.086,1.351,1.099,0.824,1.476c0,0,0.266-0.062,0.367-0.21c0.22-0.322,0.262-0.932-0.179-1.306
	C10.563,2.018,7.617,2.731,7.668,6.54"/>
</svg>

<svg xmlns="http://www.w3.org/2000/svg" viewBox="0 0 16 16"><title>inferno</title><path d="M7.67,6.54c-2.28-2-5.06-1.27-5.19.32-.07.81.3,1.15.66,1.23a.77.77,0,0,0,.6-.1c-1.48.08-.92-3.11,1.92-1.56,2.47,1.35,1.6,5.48,1.2,6.86a3.34,3.34,0,0,1-.77,1.39,1,1,0,0,1-.73.31H2a1,1,0,0,1-1-1V2A1,1,0,0,1,2,1H14a1,1,0,0,1,1,1V14a1,1,0,0,1-1,1H10.53a1,1,0,0,1-.74-.32A3.83,3.83,0,0,1,9,13.31c-.79-2.24.1-5.81,2.64-5a1.31,1.31,0,0,1,.88,1.56c-.13.55-.81,1-1.31.6.16.28.54.42,1.12.19a1.57,1.57,0,0,0,.51-2.17,2.76,2.76,0,0,0-3.66-.62l0-.17C8.54,5.54,8.68,3,10.8,3.12c1.32.09,1.35,1.1.82,1.48A.72.72,0,0,0,12,4.38a1,1,0,0,0-.18-1.31C10.56,2,7.62,2.73,7.67,6.54"/></svg>
